X: 281
T: Fanny Power
C:Turlough O'Carolan (1670-1738)
R: Waltz
L: 1/8
K:Gmaj
M: 3/4
|: D2 |"G"G4 D2 | G3 A B2 |"Am" c4 B2 |A4 G2 |"C" G3 F E2 |"D7" D2 F2 D2 | F4 G2 | A3 B c2 |
"G"B3 A G2 | B2 c2 d2 |"Am" e4 A2 | A4 G2 |"C" G3 F E2 |"D" D2 G2 F2 |"G" G6- | G4 :|
|: d2 |"G"d2 Bc d2 | d2 Bc d2 | G3 A G2 | G2 B2 d2 |"C" e2 cd e2 | e2 cd e2 |"Am" A3 B A2 | A2 B2 c2 |
"G"B2 c2 d2 |"C" e2 f2 g2 |"D" f3 ga2 | d4 c2 | "G"B3 A G2 | "D7"Ac- c2 F2 |"G" G6- | G4 :|


